build/img/icon-git.svg

<svg width="20" height="21" viewBox="0 0 20 21" fill="none" xmlns="http://www.w3.org/2000/svg">
<path d="M10 0.5C4.475 0.5 1.45954e-06 4.975 1.45954e-06 10.5C-0.00113276 12.5993 0.658815 14.6456 1.88622 16.3487C3.11362 18.0517 4.84615 19.3251 6.838 19.988C7.338 20.075 7.525 19.775 7.525 19.512C7.525 19.275 7.512 18.488 7.512 17.65C5 18.113 4.35 17.038 4.15 16.475C4.037 16.187 3.55 15.3 3.125 15.062C2.775 14.875 2.275 14.412 3.112 14.4C3.9 14.387 4.462 15.125 4.65 15.425C5.55 16.937 6.988 16.512 7.562 16.25C7.65 15.6 7.912 15.163 8.2 14.913C5.975 14.663 3.65 13.8 3.65 9.975C3.65 8.887 4.037 7.988 4.675 7.287C4.575 7.037 4.225 6.012 4.775 4.637C4.775 4.637 5.612 4.375 7.525 5.663C8.33906 5.43706 9.18017 5.32334 10.025 5.325C10.875 5.325 11.725 5.437 12.525 5.662C14.437 4.362 15.275 4.638 15.275 4.638C15.825 6.013 15.475 7.038 15.375 7.288C16.012 7.988 16.4 8.875 16.4 9.975C16.4 13.813 14.063 14.663 11.838 14.913C12.2 15.225 12.513 15.825 12.513 16.763C12.513 18.1 12.5 19.175 12.5 19.513C12.5 19.775 12.688 20.087 13.188 19.987C15.173 19.3168 16.8979 18.041 18.1199 16.3392C19.3419 14.6373 19.9994 12.5951 20 10.5C20 4.975 15.525 0.5 10 0.5Z" fill="#607B96"/>
</svg>

<svg width="20" height="21" fill="none" xmlns="http://www.w3.org/2000/svg"><path d="M10 .5C4.475.5 0 4.975 0 10.5a9.994 9.994 0 006.838 9.488c.5.087.687-.213.687-.476 0-.237-.013-1.024-.013-1.862-2.512.463-3.162-.612-3.362-1.175-.113-.288-.6-1.175-1.025-1.413-.35-.187-.85-.65-.013-.662.788-.013 1.35.725 1.538 1.025.9 1.512 2.338 1.087 2.912.825.088-.65.35-1.087.638-1.337-2.225-.25-4.55-1.113-4.55-4.938 0-1.088.387-1.987 1.025-2.688-.1-.25-.45-1.275.1-2.65 0 0 .837-.262 2.75 1.026a9.28 9.28 0 012.5-.338c.85 0 1.7.112 2.5.337 1.912-1.3 2.75-1.024 2.75-1.024.55 1.375.2 2.4.1 2.65.637.7 1.025 1.587 1.025 2.687 0 3.838-2.337 4.688-4.562 4.938.362.312.675.912.675 1.85 0 1.337-.013 2.412-.013 2.75 0 .262.188.574.688.474A10.016 10.016 0 0020 10.5c0-5.525-4.475-10-10-10z" fill="#607B96"/></svg>
